assets/babylonjs/mono.svg

<svg viewBox="0 0 24 24" xmlns="http://www.w3.org/2000/svg"><path d="m12 0-10.393 6.002v12l10.393 5.998 10.393-6v-12l-3.253-1.877-3.13 1.807 3.252 1.879v8.384l-7.262 4.194-7.264-4.194v-8.386l10.393-6zm0 8.244-3.254 1.879v3.754h.002v.004l3.252 1.877 3.252-1.877v-3.76z"/></svg>

<svg xmlns="http://www.w3.org/2000/svg" viewBox="0 0 24 24"><path d="M12 0 1.607 6.002v12L12 24l10.393-6V6L19.14 4.123 16.01 5.93l3.252 1.879v8.384L12 20.387l-7.264-4.194V7.807l10.393-6zm0 8.244-3.254 1.879v3.754h.002v.004L12 15.758l3.252-1.877v-3.76z"/></svg>
